images/airplane.svg

<?xml version="1.0" encoding="utf-8"?>
<!-- Generated by IcoMoon.io -->
<!DOCTYPE svg PUBLIC "-//W3C//DTD SVG 1.1//EN" "http://www.w3.org/Graphics/SVG/1.1/DTD/svg11.dtd">
<svg version="1.1" xmlns="http://www.w3.org/2000/svg" xmlns:xlink="http://www.w3.org/1999/xlink" width="64" height="64" viewBox="0 0 64 64">
<path d="M48 39.998l-11.426-11.426 27.426-20.572-8.001-8-34.282 13.715-10.794-10.794c-3.111-3.111-7.456-3.857-9.656-1.657s-1.454 6.545 1.657 9.656l10.793 10.793-13.716 34.286 7.999 8 20.574-27.429 11.427 11.427v15.999h8l3.999-11.999 11.999-4v-7.999l-15.999 0z" fill="#000000"></path>
</svg>

<?xml version="1.0" encoding="utf-8"?>
<!-- Generator: Adobe Illustrator 16.0.0, SVG Export Plug-In . SVG Version: 6.00 Build 0)  -->
<!DOCTYPE svg PUBLIC "-//W3C//DTD SVG 1.1//EN" "http://www.w3.org/Graphics/SVG/1.1/DTD/svg11.dtd">
<svg version="1.1" id="Layer_1" xmlns="http://www.w3.org/2000/svg" xmlns:xlink="http://www.w3.org/1999/xlink" x="0px" y="0px"
	 width="64px" height="64px" viewBox="0 0 64 64" enable-background="new 0 0 64 64" xml:space="preserve">
<path fill="#1F4180" d="M48,39.998L36.574,28.572L64,8l-8.001-8L21.717,13.715L10.923,2.921C7.812-0.19,3.467-0.936,1.267,1.264
	c-2.2,2.2-1.454,6.545,1.657,9.656l10.793,10.793L0.001,55.999l7.999,8L28.574,36.57l11.427,11.427v15.999h8L52,51.997l11.999-4
	v-7.999H48z"/>
</svg>
